images/originals/linkedin.svg

<?xml version="1.0" encoding="UTF-8" standalone="no"?>
<svg width="35px" height="35px" viewBox="0 0 35 35" version="1.1" xmlns="http://www.w3.org/2000/svg" xmlns:xlink="http://www.w3.org/1999/xlink">
    <!-- Generator: Sketch 3.6.1 (26313) - http://www.bohemiancoding.com/sketch -->
    <title>linkedin</title>
    <desc>Created with Sketch.</desc>
    <defs></defs>
    <g id="Page-1" stroke="none" stroke-width="1" fill="none" fill-rule="evenodd">
        <g id="linkedin">
            <g id="Page-1">
                <g id="linkedin">
                    <g id="Page-1">
                        <g id="LinkedIn">
                            <path d="M17.5,0 C7.8350164,0 0,7.8350164 0,17.5 C0,27.1649836 7.8350164,35 17.5,35 C27.1649836,35 35,27.1649836 35,17.5 C35,7.8350164 27.1649836,0 17.5,0 Z" id="Oval-1" fill-opacity="0.01" fill="#FFFFFF"></path>
                            <path d="M23.5769213,12.1180479 C21.076176,12.1180479 19.9565501,13.5293199 19.3314108,14.5193527 L19.3314108,12.4598644 L14.6207614,12.4598644 C14.6828427,13.8242356 14.6207614,27 14.6207614,27 L19.3314108,27 L19.3314108,18.8795887 C19.3314108,18.445032 19.3619812,18.0115368 19.4865199,17.7004084 C19.826932,16.83226 20.6020069,15.9334233 21.9032674,15.9334233 C23.6083381,15.9334233 24.2899149,17.2667202 24.2899149,19.2206333 L24.2899149,26.999614 L28.9998119,26.999614 L29,18.6627446 C29,14.1966439 26.6763743,12.1180479 23.5769213,12.1180479 L23.5769213,12.1180479 L23.5769213,12.1180479 Z" id="Oval-1-path" fill="#2BABEE"></path>
                            <path d="M9.6646962,5 C8.0534058,5 7,6.0858611 7,7.5115122 C7,8.9076331 8.0222711,10.0247614 9.6035556,10.0247614 L9.6336556,10.0247614 C11.2759867,10.0247614 12.2988222,8.9076331 12.2988222,7.5115122 C12.2682519,6.0858611 11.2759867,5 9.6646962,5 L9.6646962,5 L9.6646962,5 Z" id="Oval-1-path" fill="#2BABEE"></path>
                            <path d="M7,12.1180479 L7,26.6581834 L11.7100851,26.6581834 L11.7100851,12.1180479 L7,12.1180479 L7,12.1180479 L7,12.1180479 Z" id="Oval-1-path" fill="#2BABEE"></path>
                        </g>
                    </g>
                </g>
            </g>
        </g>
    </g>
</svg>

<svg width="35" height="35" viewBox="0 0 35 35" xmlns="http://www.w3.org/2000/svg"><title>linkedin</title><g fill="none" fill-rule="evenodd"><path d="M17.5 0C7.835 0 0 7.835 0 17.5S7.835 35 17.5 35 35 27.165 35 17.5 27.165 0 17.5 0z" fill-opacity=".01" fill="#FFF"/><path d="M23.577 12.118c-2.5 0-3.62 1.41-4.246 2.4V12.46h-4.71c.063 1.364 0 14.54 0 14.54h4.71v-8.12c0-.435.032-.868.157-1.18.34-.868 1.115-1.767 2.416-1.767 1.705 0 2.387 1.334 2.387 3.288V27H29v-8.337c0-4.466-2.324-6.545-5.423-6.545zM9.665 5C8.053 5 7 6.086 7 7.512c0 1.396 1.022 2.513 2.604 2.513h.03c1.642 0 2.665-1.117 2.665-2.513C12.267 6.086 11.275 5 9.664 5zM7 12.118v14.54h4.71v-14.54H7z" fill="#2BABEE"/></g></svg>
